X:1
R:Polska
M:3/4
L:1/16
K:G
"G"B3B c zz c B2B2|"D"A2d2 d8|"G"B3B c zz c B2B2|"D"ABAF D8|
"G"B3B c zz c B2B2|"D"A2d2 d8|"G"G2AB "C"cdcA "G"BcBG|"D"ABAF "G"G8||
"Em"B2B2 c2c2 B2B2|"D"A2d2 d8|"Em"B2B2 c2c2 B2B2|"D"ABAF D8|
"Em"B2B2 c2c2 B2B2|"D"A2d2 d8|"G"G2AB "C"cdcA "G"BcBG|"D"ABAF "G"G8|]

